X: 40975
T: Trip To Dingle, The
R: polka
M: 2/4
K: Dmajor
|:DE/F/ AA|AB F2-|Fd BA|B/c/B/A/ FD|
Bc/B/ AF|DE FA-|AB FE|1 D2 D2:|2 D2 dc||
|:Bc/B/ AB|de f2|ed/e/ fe|ed BA|Bc/B/ AB|
[1 de fa-|ab fd|e2 dc:|2 de fa-|ab fe|d2 AF||

